icons/solid/annotation.svg

<svg width="24" height="24" viewBox="0 0 24 24" fill="none" xmlns="http://www.w3.org/2000/svg">
<path fill-rule="evenodd" clip-rule="evenodd" d="M2 6C2 4.34315 3.34315 3 5 3H19C20.6569 3 22 4.34315 22 6V15C22 16.6569 20.6569 18 19 18H16.8284C16.5632 18 16.3089 18.1054 16.1213 18.2929L14.1213 20.2929C12.9497 21.4645 11.0503 21.4645 9.87868 20.2929L7.87868 18.2929C7.69114 18.1054 7.43679 18 7.17157 18H5C3.34315 18 2 16.6569 2 15V6ZM7 7C6.44772 7 6 7.44772 6 8C6 8.55228 6.44772 9 7 9H17C17.5523 9 18 8.55228 18 8C18 7.44772 17.5523 7 17 7H7ZM7 11C6.44772 11 6 11.4477 6 12C6 12.5523 6.44772 13 7 13H12C12.5523 13 13 12.5523 13 12C13 11.4477 12.5523 11 12 11H7Z" fill="currentColor"/>
</svg>

<svg width="24" height="24" fill="none" xmlns="http://www.w3.org/2000/svg"><path fill-rule="evenodd" clip-rule="evenodd" d="M2 6a3 3 0 013-3h14a3 3 0 013 3v9a3 3 0 01-3 3h-2.172a1 1 0 00-.707.293l-2 2a3 3 0 01-4.242 0l-2-2A1 1 0 007.172 18H5a3 3 0 01-3-3V6zm5 1a1 1 0 000 2h10a1 1 0 100-2H7zm0 4a1 1 0 100 2h5a1 1 0 100-2H7z" fill="currentColor"/></svg>
